public/svg/govuk.svg

<svg height="100" viewBox="0 0 195 100" width="195" xmlns="http://www.w3.org/2000/svg"><path d="m37.75 75.375 1.625-5.5c-.125-.125-.375-.25-.375-.375l-4.25 1.375v-6.375l4.25 2.25c.125-.125.25-.375.375-.375l-2.5-7.5c-.125-.375-.125-.75-.125-1.25 0-2 1.5-3.75 3.5-3.875h.125.5.5.125c1.875.375 3.5 1.875 3.5 3.875 0 .375-.125.75-.125 1.25l-2.5 7.5c.125.125.375.25.5.375l4.25-2.25v6.375l-4.25-1.375c-.125.125-.25.375-.375.375l1.625 5.5h-3.125c-.25 0-3.25 0-3.25 0zm-29.375-58.25c-1.25 0-2.25-.25-3.25-.625s-1.75-1-2.375-1.75-1.25-1.625-1.5-2.625c-.375-1-.5-2.125-.5-3.25s.125-2.25.5-3.25.75-1.875 1.5-2.625c.625-.75 1.375-1.375 2.375-1.75.875-.375 1.875-.625 3.125-.625.5 0 1 .125 1.5.125.5.125.875.25 1.25.375s.75.375 1 .625c.375.25.5.5.75.875v-1.875h2.875v8.875h-7.375v-2.5h4.125v-.125c0-.375-.125-.75-.125-1.125-.125-.375-.375-.75-.625-1.125-.375-.375-.625-.625-1.125-.875s-1.125-.375-1.875-.375-1.5.125-1.875.5c-.5.375-1 .75-1.375 1.25s-.625 1-.75 1.625-.25 1.25-.25 2v.125c0 .625.125 1.375.25 2s.375 1.25.75 1.625c.375.5.75.875 1.375 1.25.5.375 1.25.5 1.875.5.5 0 .875-.125 1.25-.125.375-.125.75-.375 1-.5.375-.25.5-.5.75-.75s.375-.625.625-1l2.875 1.625c-.25.5-.625 1-1 1.5s-1 .875-1.5 1.25-1.25.5-1.875.75c-.75 0-1.5 0-2.375 0zm16.75 0c-1.25 0-2.25-.25-3.25-.625s-1.75-1-2.375-1.75-1.25-1.625-1.5-2.625-.5-2.125-.5-3.25.125-2.25.5-3.25.875-1.875 1.5-2.625 1.5-1.375 2.375-1.75c1-.375 2-.625 3.25-.625s2.25.25 3.25.625 1.75 1 2.375 1.75 1.25 1.625 1.5 2.625.5 2.125.5 3.25-.125 2.25-.5 3.25-.875 1.875-1.5 2.625-1.5 1.375-2.375 1.75c-1 .375-2 .625-3.25.625zm29.625-.25v-10.5c0-.875.125-1.625.5-2.375s.75-1.375 1.375-1.875c.5-.5 1.25-.875 2.125-1.25.75-.25 1.625-.375 2.625-.375s1.875.125 2.625.375 1.5.625 2.125 1.25c.5.5 1 1.125 1.375 1.875s.5 1.5.5 2.375v10.5h-3.25v-10c0-.5-.125-1.125-.25-1.5s-.375-.75-.75-1c-.375-.375-.625-.5-1-.625s-.875-.25-1.25-.25c-.5 0-.875.125-1.25.25s-.75.375-1 .625c-.375.375-.5.625-.75 1-.125.375-.25 1-.25 1.5v10zm-20.75 0 4.625-16.125h4.375l4.625 16.125h-3.625l-3-12.125h-.125l-3.125 12.125zm37 0v-16.125h3.25v4.875l2.125 2.375 4.25-7.25h3.75l-6 9.75 5.625 6.375h-4l-5.75-7v7zm-48.625 50.375c-1.25 0-2.625-.75-3.125-2.125-.75-1.625.125-3.75 1.875-4.375 1.75-.75 3.75.125 4.375 1.875.75 1.625-.125 3.75-1.875 4.375-.375.25-.875.25-1.25.25zm36.875 0c-.375 0-.875-.125-1.25-.25-1.75-.75-2.625-2.75-1.875-4.375s2.625-2.625 4.375-1.875c1.625.75 2.625 2.625 1.875 4.375-.5 1.25-1.75 2.125-3.125 2.125zm-28.375-2.625c-1.25 0-2.625-.75-3.125-2.125-.75-1.625.125-3.75 1.875-4.375 1.75-.75 3.75.125 4.375 1.875.75 1.625-.125 3.75-1.875 4.375-.375.125-.875.25-1.25.25zm19.875 0c-.375 0-.875-.125-1.25-.25-1.75-.75-2.625-2.75-1.875-4.375s2.75-2.625 4.375-1.875 2.625 2.625 1.875 4.375c-.5 1.25-1.75 2.125-3.125 2.125zm-36.125-1.875c-1.25 0-2.625-.75-3.125-2.125-.75-1.625.125-3.75 1.875-4.375s3.75.125 4.375 1.875c.75 1.625-.125 3.75-1.875 4.375-.375.25-.75.25-1.25.25zm52.375 0c-.375 0-.875-.125-1.25-.25-1.75-.75-2.625-2.75-1.875-4.375s2.625-2.625 4.375-1.875c1.625.75 2.625 2.625 1.875 4.375-.5 1.25-1.875 2.125-3.125 2.125zm-41.875-48.625c.75 0 1.375-.125 1.875-.375s1-.625 1.375-1.125.625-1 .75-1.625.375-1.375.375-2.125v-.125c0-.75-.125-1.5-.375-2.125-.125-.625-.5-1.25-.75-1.625-.375-.5-.75-.75-1.375-1.125-.5-.25-1.125-.375-1.875-.375s-1.375.125-1.875.375-1 .625-1.375 1.125-.625 1-.75 1.625-.375 1.375-.375 2.125v.125c0 .75.125 1.5.375 2.125.125.625.5 1.25.75 1.625.375.5.75.75 1.375 1.125.5.25 1.125.375 1.875.375zm-12.75 40.125c-1.25 0-2.625-.75-3.125-2.125-.75-1.625.125-3.75 1.875-4.375 1.75-.75 3.75.125 4.375 1.875.75 1.625-.125 3.75-1.875 4.375-.375.125-.75.25-1.25.25zm56.875 0c-.375 0-.875-.125-1.25-.25-1.75-.75-2.625-2.75-1.875-4.375s2.75-2.625 4.375-1.875 2.625 2.625 1.875 4.375c-.5 1.25-1.875 2.125-3.125 2.125zm-44.625-.875c-2.75-3.75-2.375-6.75 1-10.25-2.25 1.25-5.75-.125-3.75-4.25 1 2.625 3.375 2 3.875-.25.375-1.625-.625-3.5-2.75-3.875-1.625-.375-4.375.875-6.5 5.5 1.25 0 2.25-.625 3.625-1.625l-2.25 7.5c-.5-2.125-1.25-3.5-2-4.125-.5 1.5-.375 2.625 0 4.875l-4.625-1.625c2.375-3.375 4.875-8 6.75-16.25 6.875 1 14.5 1.5 22.75 1.5 8.125 0 15.75-.5 22.75-1.5 1.875 8.125 4.375 12.875 6.75 16.25l-4.625 1.625c.5-2.375.5-3.5 0-4.875-.75.75-1.5 2.125-2 4.125l-2.25-7.5c1.375 1 2.375 1.5 3.625 1.625-2.125-4.625-4.875-5.75-6.5-5.5-2.125.375-3 2.25-2.75 3.875.5 2.25 2.75 2.75 3.875.25 2.125 4.125-1.5 5.5-3.75 4.25 3.5 3.5 3.875 6.5 1 10.25-3.875-3-3.875-6-2.125-10-2.25 2.625-5.75 1.25-4.625-3 1.625 2.625 3.75 1 3.5-1.5-.375-2.125-3-3.75-6.5-3.5-5 .5-5.25 3.875-5.375 6.625 1.25.25 3.375-.875 5.25-3.5l.75 7.875c-2-2.125-3.875-2.5-6-2.625.75 2.125 3.875 5.625 3.875 5.625h-4.375-5.25s3.125-3.5 3.875-5.625c-2.125.125-3.875.5-6 2.625l.75-7.875c1.875 2.625 4.125 3.75 5.25 3.5-.125-2.75-.375-6.25-5.375-6.625-3.5-.375-6.25 1.375-6.5 3.5-.375 2.375 1.875 4 3.5 1.5 1.25 4.125-2.25 5.625-4.625 3 1.75 4 1.625 7-2.25 10zm25.5-48.75c-.25 0-.5-.125-.75-.125-.25-.125-.5-.25-.625-.375s-.375-.375-.5-.625-.125-.5-.125-.75.125-.5.125-.75c.125-.25.25-.5.5-.625.125-.125.375-.375.625-.375.25-.125.5-.125.75-.125.375 0 .5.125.75.125.25.125.5.25.625.375s.375.375.5.625.125.5.125.75-.125.5-.125.75-.25.5-.5.625c-.125.125-.375.375-.625.375s-.5.125-.75.125z" fill="#112a3e" transform="matrix(1 0 0 -1 55.47 88.87)"/></svg>

<?xml version="1.0" encoding="UTF-8"?>
<svg width="195px" height="100px" viewBox="0 0 195 100" version="1.1" xmlns="http://www.w3.org/2000/svg" xmlns:xlink="http://www.w3.org/1999/xlink">
    <!-- Generator: Sketch 57 (83077) - https://sketch.com -->
    <title>Untitled 5</title>
    <desc>Created with Sketch.</desc>
    <g id="Page-1" stroke="none" stroke-width="1" fill="none" fill-rule="evenodd">
        <g id="Govuk_logo" transform="translate(55.000000, 12.000000)" fill="#112A3E" fill-rule="nonzero">
            <g id="Group" transform="translate(42.970000, 38.745000) scale(-1, 1) rotate(-180.000000) translate(-42.970000, -38.745000) translate(0.470000, 0.620000)">
                <path d="M37.75,75.375 L39.375,69.875 L39.375,69.875 C39.25,69.75 39,69.625 39,69.5 L39,69.5 L34.75,70.875 L34.75,64.5 L39,66.75 L39,66.75 C39.125,66.625 39.25,66.375 39.375,66.375 L36.875,58.875 L36.875,58.875 L36.875,58.875 C36.75,58.5 36.75,58.125 36.75,57.625 C36.75,55.625 38.25,53.875 40.25,53.75 L40.375,53.75 C40.5,53.75 40.75,53.75 40.875,53.75 C41,53.75 41.25,53.75 41.375,53.75 L41.5,53.75 C43.375,54.125 45,55.625 45,57.625 C45,58 44.875,58.375 44.875,58.875 L44.875,58.875 L44.875,58.875 L42.375,66.375 C42.5,66.5 42.75,66.625 42.875,66.75 L42.875,66.75 L47.125,64.5 L47.125,70.875 L42.875,69.5 L42.875,69.5 C42.75,69.625 42.625,69.875 42.5,69.875 L42.5,69.875 L44.125,75.375 L41,75.375 C40.75,75.375 37.75,75.375 37.75,75.375 Z M8.375,17.125 C7.125,17.125 6.125,16.875 5.125,16.5 C4.125,16.125 3.375,15.5 2.75,14.75 C2.125,14 1.5,13.125 1.25,12.125 C0.875,11.125 0.75,10 0.75,8.875 C0.75,7.75 0.875,6.625 1.25,5.625 C1.625,4.625 2,3.75 2.75,3 C3.375,2.25 4.125,1.625 5.125,1.25 C6,0.875 7,0.625 8.25,0.625 C8.75,0.625 9.25,0.75 9.75,0.75 C10.25,0.875 10.625,1 11,1.125 C11.375,1.25 11.75,1.5 12,1.75 C12.375,2 12.5,2.25 12.75,2.625 L12.75,0.75 L15.625,0.75 L15.625,9.625 L8.25,9.625 L8.25,7.125 L12.375,7.125 L12.375,7 C12.375,6.625 12.25,6.25 12.25,5.875 C12.125,5.5 11.875,5.125 11.625,4.75 C11.25,4.375 11,4.125 10.5,3.875 C10,3.625 9.375,3.5 8.625,3.5 C7.875,3.5 7.125,3.625 6.75,4 C6.25,4.375 5.75,4.75 5.375,5.25 C5,5.75 4.75,6.25 4.625,6.875 C4.5,7.5 4.375,8.125 4.375,8.875 L4.375,9 C4.375,9.625 4.5,10.375 4.625,11 C4.75,11.625 5,12.25 5.375,12.625 C5.75,13.125 6.125,13.5 6.75,13.875 C7.25,14.25 8,14.375 8.625,14.375 C9.125,14.375 9.5,14.25 9.875,14.25 C10.25,14.125 10.625,13.875 10.875,13.75 C11.25,13.5 11.375,13.25 11.625,13 C11.875,12.75 12,12.375 12.25,12 L15.125,13.625 C14.875,14.125 14.5,14.625 14.125,15.125 C13.75,15.625 13.125,16 12.625,16.375 C12.125,16.75 11.375,16.875 10.75,17.125 C10,17.125 9.25,17.125 8.375,17.125 Z M25.125,17.125 C23.875,17.125 22.875,16.875 21.875,16.5 C20.875,16.125 20.125,15.5 19.5,14.75 C18.875,14 18.25,13.125 18,12.125 C17.75,11.125 17.5,10 17.5,8.875 C17.5,7.75 17.625,6.625 18,5.625 C18.375,4.625 18.875,3.75 19.5,3 C20.125,2.25 21,1.625 21.875,1.25 C22.875,0.875 23.875,0.625 25.125,0.625 C26.375,0.625 27.375,0.875 28.375,1.25 C29.375,1.625 30.125,2.25 30.75,3 C31.375,3.75 32,4.625 32.25,5.625 C32.5,6.625 32.75,7.75 32.75,8.875 C32.75,10 32.625,11.125 32.25,12.125 C31.875,13.125 31.375,14 30.75,14.75 C30.125,15.5 29.25,16.125 28.375,16.5 C27.375,16.875 26.375,17.125 25.125,17.125 Z M54.75,16.875 L54.75,6.375 C54.75,5.5 54.875,4.75 55.25,4 C55.625,3.25 56,2.625 56.625,2.125 C57.125,1.625 57.875,1.25 58.75,0.875 C59.5,0.625 60.375,0.5 61.375,0.5 C62.375,0.5 63.25,0.625 64,0.875 C64.75,1.125 65.5,1.5 66.125,2.125 C66.625,2.625 67.125,3.25 67.5,4 C67.875,4.75 68,5.5 68,6.375 L68,16.875 L64.75,16.875 L64.75,6.875 C64.75,6.375 64.625,5.75 64.5,5.375 C64.375,5 64.125,4.625 63.75,4.375 C63.375,4 63.125,3.875 62.75,3.75 C62.375,3.625 61.875,3.5 61.5,3.5 C61,3.5 60.625,3.625 60.25,3.75 C59.875,3.875 59.5,4.125 59.25,4.375 C58.875,4.75 58.75,5 58.5,5.375 C58.375,5.75 58.25,6.375 58.25,6.875 L58.25,16.875 L54.75,16.875 L54.75,16.875 Z M34,16.875 L38.625,0.75 L43,0.75 L47.625,16.875 L44,16.875 L41,4.75 L40.875,4.75 L37.75,16.875 L34,16.875 L34,16.875 Z M71,16.875 L71,0.75 L74.25,0.75 L74.25,5.625 L76.375,8 L80.625,0.75 L84.375,0.75 L78.375,10.5 L84,16.875 L80,16.875 L74.25,9.875 L74.25,16.875 L71,16.875 L71,16.875 Z M22.375,67.25 C21.125,67.25 19.75,66.5 19.25,65.125 C18.5,63.5 19.375,61.375 21.125,60.75 C22.875,60 24.875,60.875 25.5,62.625 C26.25,64.25 25.375,66.375 23.625,67 C23.25,67.25 22.75,67.25 22.375,67.25 Z M59.25,67.25 C58.875,67.25 58.375,67.125 58,67 C56.25,66.25 55.375,64.25 56.125,62.625 C56.875,61 58.75,60 60.5,60.75 C62.125,61.5 63.125,63.375 62.375,65.125 C61.875,66.375 60.625,67.25 59.25,67.25 Z M30.875,64.625 C29.625,64.625 28.25,63.875 27.75,62.5 C27,60.875 27.875,58.75 29.625,58.125 C31.375,57.375 33.375,58.25 34,60 C34.75,61.625 33.875,63.75 32.125,64.375 C31.75,64.5 31.25,64.625 30.875,64.625 Z M50.75,64.625 C50.375,64.625 49.875,64.5 49.5,64.375 C47.75,63.625 46.875,61.625 47.625,60 C48.375,58.375 50.375,57.375 52,58.125 C53.625,58.875 54.625,60.75 53.875,62.5 C53.375,63.75 52.125,64.625 50.75,64.625 Z M14.625,62.75 C13.375,62.75 12,62 11.5,60.625 C10.75,59 11.625,56.875 13.375,56.25 C15.125,55.625 17.125,56.375 17.75,58.125 C18.5,59.75 17.625,61.875 15.875,62.5 C15.5,62.75 15.125,62.75 14.625,62.75 Z M67,62.75 C66.625,62.75 66.125,62.625 65.75,62.5 C64,61.75 63.125,59.75 63.875,58.125 C64.625,56.5 66.5,55.5 68.25,56.25 C69.875,57 70.875,58.875 70.125,60.625 C69.625,61.875 68.25,62.75 67,62.75 Z M25.125,14.125 C25.875,14.125 26.5,14 27,13.75 C27.5,13.5 28,13.125 28.375,12.625 C28.75,12.125 29,11.625 29.125,11 C29.25,10.375 29.5,9.625 29.5,8.875 L29.5,8.75 C29.5,8 29.375,7.25 29.125,6.625 C29,6 28.625,5.375 28.375,5 C28,4.5 27.625,4.25 27,3.875 C26.5,3.625 25.875,3.5 25.125,3.5 C24.375,3.5 23.75,3.625 23.25,3.875 C22.75,4.125 22.25,4.5 21.875,5 C21.5,5.5 21.25,6 21.125,6.625 C21,7.25 20.75,8 20.75,8.75 L20.75,8.875 C20.75,9.625 20.875,10.375 21.125,11 C21.25,11.625 21.625,12.25 21.875,12.625 C22.25,13.125 22.625,13.375 23.25,13.75 C23.75,14 24.375,14.125 25.125,14.125 Z M12.375,54.25 C11.125,54.25 9.75,53.5 9.25,52.125 C8.5,50.5 9.375,48.375 11.125,47.75 C12.875,47 14.875,47.875 15.5,49.625 C16.25,51.25 15.375,53.375 13.625,54 C13.25,54.125 12.875,54.25 12.375,54.25 Z M69.25,54.25 C68.875,54.25 68.375,54.125 68,54 C66.25,53.25 65.375,51.25 66.125,49.625 C66.875,48 68.875,47 70.5,47.75 C72.125,48.5 73.125,50.375 72.375,52.125 C71.875,53.375 70.5,54.25 69.25,54.25 Z M24.625,53.375 C21.875,49.625 22.25,46.625 25.625,43.125 C23.375,44.375 19.875,43 21.875,38.875 C22.875,41.5 25.25,40.875 25.75,38.625 C26.125,37 25.125,35.125 23,34.75 C21.375,34.375 18.625,35.625 16.5,40.25 C17.75,40.25 18.75,39.625 20.125,38.625 L17.875,46.125 C17.375,44 16.625,42.625 15.875,42 C15.375,43.5 15.5,44.625 15.875,46.875 L11.25,45.25 C13.625,41.875 16.125,37.25 18,29 C24.875,30 32.5,30.5 40.75,30.5 C48.875,30.5 56.5,30 63.5,29 C65.375,37.125 67.875,41.875 70.25,45.25 L65.625,46.875 C66.125,44.5 66.125,43.375 65.625,42 C64.875,42.75 64.125,44.125 63.625,46.125 L61.375,38.625 C62.75,39.625 63.75,40.125 65,40.25 C62.875,35.625 60.125,34.5 58.5,34.75 C56.375,35.125 55.5,37 55.75,38.625 C56.25,40.875 58.5,41.375 59.625,38.875 C61.75,43 58.125,44.375 55.875,43.125 C59.375,46.625 59.75,49.625 56.875,53.375 C53,50.375 53,47.375 54.75,43.375 C52.5,46 49,44.625 50.125,40.375 C51.75,43 53.875,41.375 53.625,38.875 C53.25,36.75 50.625,35.125 47.125,35.375 C42.125,35.875 41.875,39.25 41.75,42 C43,42.25 45.125,41.125 47,38.5 L47.75,46.375 C45.75,44.25 43.875,43.875 41.75,43.75 C42.5,45.875 45.625,49.375 45.625,49.375 L41.25,49.375 L41.25,49.375 L36,49.375 C36,49.375 39.125,45.875 39.875,43.75 C37.75,43.875 36,44.25 33.875,46.375 L34.625,38.5 C36.5,41.125 38.75,42.25 39.875,42 C39.75,39.25 39.5,35.75 34.5,35.375 C31,35 28.25,36.75 28,38.875 C27.625,41.25 29.875,42.875 31.5,40.375 C32.75,44.5 29.25,46 26.875,43.375 C28.625,47.375 28.5,50.375 24.625,53.375 L24.625,53.375 Z M50.125,4.625 C49.875,4.625 49.625,4.5 49.375,4.5 C49.125,4.375 48.875,4.25 48.75,4.125 C48.625,4 48.375,3.75 48.25,3.5 C48.125,3.25 48.125,3 48.125,2.75 C48.125,2.5 48.25,2.25 48.25,2 C48.375,1.75 48.5,1.5 48.75,1.375 C48.875,1.25 49.125,1 49.375,1 C49.625,0.875 49.875,0.875 50.125,0.875 C50.5,0.875 50.625,1 50.875,1 C51.125,1.125 51.375,1.25 51.5,1.375 C51.625,1.5 51.875,1.75 52,2 C52.125,2.25 52.125,2.5 52.125,2.75 C52.125,3 52,3.25 52,3.5 C52,3.75 51.75,4 51.5,4.125 C51.375,4.25 51.125,4.5 50.875,4.5 C50.625,4.5 50.375,4.625 50.125,4.625 Z" id="Shape"></path>
            </g>
        </g>
    </g>
</svg>
